X:204
T:Cahir's Kitchen
C:Paddy Keenan
Z:Transcription by Paul Legrand
R:reel
M:4/4
L:1/8
K:E Min
|: B | E2GB E2GB | A2FA DEFD | E2GB E2GA | B2c/B/A  BAGF |
E2GB E2GB | A2FA dAFD | E/F/GF/G/A G/A/B A/B/c | BAFG E3 ::
f | eBgf eBfe | dAfe dafg | eBgf eBBA | BAGF GEE2 |
eBgf eBfe | dA A/B/A FAdD | EGFA GBAc | BAFG E3 ::
A | B3 G EGBd | A2 FA DEFD | B3G EFGE | BEcA dBcA |
BeBG EGBd | A/B/A FA dAFD | EGFA GBAc | BAFG E3 ::
f | eBgf eBfe | dAfe dafg | eBgf edef | gfga bagf |
eBgf eBfe | dA A2 FAdD | EGFA GBAc | BAFG E3 :|
